images/logo/logo-header-420.svg

<svg width="133" height="20" viewBox="0 0 133 20" fill="none" xmlns="http://www.w3.org/2000/svg">
<path d="M29 16H0L14.5 0L29 16ZM7.87587 8.08055L9.85065 10.2586L11.8255 8.08055L9.85065 5.89609L7.87587 8.08055ZM9.85065 15.3878L11.8255 13.2098L9.85065 11.0254L7.87587 13.2098L9.85065 15.3878ZM19.1804 15.3878L21.1552 13.2098L19.1804 11.0254L17.1745 13.2098L19.1804 15.3878ZM16.848 3.32501C16.8362 3.34623 16.8204 3.36579 16.8014 3.383C16.1871 4.07249 15.5651 4.76198 14.9354 5.44503C14.881 5.50302 14.9354 5.54169 14.9354 5.59324L16.7547 7.60369L16.8402 7.68745L18.815 5.51591L16.848 3.32501ZM5.20134 15.3878L5.27909 15.3041L7.09837 13.3001C7.12737 13.2749 7.14359 13.2414 7.14359 13.2066C7.14359 13.1718 7.12737 13.1383 7.09837 13.1132C6.54637 12.5204 6.00992 11.9146 5.46568 11.3153L5.20134 11.0254L3.22654 13.2098L5.20134 15.3878ZM10.2005 5.50946L12.1753 7.68745L12.2375 7.62948L14.0957 5.58034C14.1579 5.50946 14.0957 5.4708 14.0957 5.41925L12.2764 3.42167L12.1986 3.3379L10.2005 5.50946ZM10.2005 10.6645L12.1753 12.8425L12.2764 12.7394C12.8673 12.0951 13.4659 11.4506 14.0646 10.7612C14.0813 10.7485 14.0947 10.733 14.1039 10.7159C14.113 10.6986 14.1177 10.6801 14.1177 10.6613C14.1177 10.6425 14.113 10.6239 14.1039 10.6067C14.0947 10.5895 14.0813 10.5741 14.0646 10.5614C13.5048 9.94923 12.9451 9.33711 12.393 8.71846L12.1753 8.48652L10.2005 10.6645ZM19.5303 10.6645L21.5051 12.8425L23.4799 10.6645L21.5051 8.48652L19.5303 10.6645ZM16.848 8.48006V8.52517L14.9742 10.5937C14.912 10.6516 14.9354 10.6903 14.9742 10.7418L16.7158 12.675C16.7625 12.733 16.8169 12.791 16.8791 12.8554L18.8539 10.6774L16.848 8.48006ZM7.53379 12.8297C7.54314 12.8108 7.55628 12.7934 7.57267 12.7781L9.44637 10.7096C9.50081 10.6452 9.44637 10.613 9.44637 10.5614L7.60374 8.55095C7.57959 8.52209 7.55083 8.49606 7.51822 8.4736L5.5512 10.6452L7.53379 12.8297ZM19.1494 10.2521L21.1241 8.07409L19.1494 5.90254L17.1745 8.08055L19.1494 10.2521ZM14.4844 5.09706L16.4593 2.91905L14.5156 0.786148H14.4767L12.5796 2.89972C12.5679 2.91515 12.5617 2.93302 12.5617 2.95127C12.5617 2.96951 12.5679 2.98738 12.5796 3.00282L14.4844 5.09706ZM14.4844 10.2521L16.4593 8.07409L14.5 5.89609L12.5252 8.08055L14.4844 10.2521ZM14.4844 15.4071L16.4593 13.2292L14.4844 11.0447L12.5252 13.2098L14.4844 15.4071ZM23.8142 15.4071L25.789 13.2292L23.822 11.0641H23.7831L21.8783 13.1454C21.8161 13.2162 21.8783 13.2485 21.8783 13.2936L23.4332 15.0399L23.8142 15.4071ZM1.11957 15.5296H4.66488L2.90778 13.5964L1.11957 15.5296ZM24.3662 15.5296H27.8804L26.1233 13.5964L24.3662 15.5296ZM13.9402 15.5296L12.1753 13.5964L10.4105 15.5296H13.9402ZM19.7169 15.5296H23.2311L21.474 13.5964L19.7169 15.5296ZM18.5818 15.5296L16.8247 13.5964L15.0676 15.5296H18.5818ZM9.25201 15.5296L7.4949 13.5964L5.7378 15.5296H9.25201Z" fill="white"/>
<path d="M54.72 15.84H54.8C54.8853 15.84 54.96 15.8133 55.024 15.76C55.088 15.696 55.1413 15.6213 55.184 15.536C55.2373 15.4507 55.2747 15.36 55.296 15.264C55.328 15.168 55.344 15.0773 55.344 14.992V6.432C55.344 6.35733 55.328 6.272 55.296 6.176C55.2747 6.08 55.2373 5.98933 55.184 5.904C55.1413 5.81867 55.088 5.74933 55.024 5.696C54.96 5.632 54.8853 5.6 54.8 5.6H54.72V5.44H57.024V5.6H56.944C56.8587 5.6 56.784 5.632 56.72 5.696C56.656 5.74933 56.6027 5.81867 56.56 5.904C56.5173 5.98933 56.48 6.08 56.448 6.176C56.4267 6.272 56.416 6.35733 56.416 6.432V15.408H59.92C60.1227 15.408 60.2987 15.36 60.448 15.264C60.5973 15.168 60.72 15.0507 60.816 14.912C60.9227 14.7627 60.9973 14.608 61.04 14.448C61.0933 14.2773 61.12 14.1227 61.12 13.984H61.28V16H54.72V15.84ZM71.8933 5.28C72.7253 5.28 73.4719 5.42933 74.1333 5.728C74.7946 6.016 75.3546 6.41067 75.8133 6.912C76.2826 7.40267 76.6399 7.97867 76.8853 8.64C77.1413 9.29067 77.2693 9.97333 77.2693 10.688C77.2693 11.488 77.1199 12.224 76.8213 12.896C76.5333 13.568 76.1333 14.144 75.6213 14.624C75.1093 15.104 74.5119 15.4827 73.8293 15.76C73.1573 16.0267 72.4373 16.16 71.6693 16.16C70.8479 16.16 70.1066 16.0107 69.4453 15.712C68.7946 15.4133 68.2399 15.0187 67.7812 14.528C67.3333 14.0373 66.9866 13.472 66.7413 12.832C66.4959 12.192 66.3733 11.5253 66.3733 10.832C66.3733 10.1493 66.4959 9.47733 66.7413 8.816C66.9866 8.144 67.3439 7.54667 67.8133 7.024C68.2933 6.50133 68.8746 6.08 69.5573 5.76C70.2399 5.44 71.0186 5.28 71.8933 5.28ZM71.8773 15.6C72.5919 15.568 73.2159 15.408 73.7493 15.12C74.2933 14.8213 74.7466 14.448 75.1093 14C75.4719 13.5413 75.7386 13.04 75.9093 12.496C76.0906 11.952 76.1813 11.4133 76.1813 10.88C76.1813 10.2933 76.0746 9.70133 75.8613 9.104C75.6479 8.50667 75.3439 7.968 74.9493 7.488C74.5546 6.99733 74.0799 6.60267 73.5253 6.304C72.9813 5.99467 72.3679 5.84 71.6853 5.84C71.0239 5.84 70.4319 5.98933 69.9093 6.288C69.3866 6.576 68.9386 6.94933 68.5653 7.408C68.2026 7.86667 67.9253 8.37867 67.7333 8.944C67.5413 9.50933 67.4453 10.064 67.4453 10.608C67.4453 11.1947 67.5573 11.7867 67.7812 12.384C68.0053 12.9707 68.3146 13.504 68.7093 13.984C69.1039 14.464 69.5679 14.8533 70.1013 15.152C70.6453 15.4507 71.2373 15.6 71.8773 15.6ZM83.6731 5.44H85.9451V5.6H85.8651C85.7798 5.6 85.7051 5.632 85.6411 5.696C85.5771 5.74933 85.5185 5.81867 85.4651 5.904C85.4225 5.98933 85.3905 6.08 85.3691 6.176C85.3478 6.272 85.3371 6.35733 85.3371 6.432V12.752C85.3371 13.168 85.3798 13.552 85.4651 13.904C85.5505 14.256 85.6945 14.56 85.8971 14.816C86.0998 15.072 86.3665 15.2747 86.6971 15.424C87.0278 15.5627 87.4331 15.632 87.9131 15.632C88.4465 15.632 88.8731 15.5467 89.1931 15.376C89.5131 15.2053 89.7585 14.9867 89.9291 14.72C90.0998 14.4427 90.2118 14.1333 90.2651 13.792C90.3185 13.4507 90.3451 13.1147 90.3451 12.784V6.432C90.3451 6.35733 90.3345 6.272 90.3131 6.176C90.2918 6.08 90.2545 5.98933 90.2011 5.904C90.1585 5.81867 90.1051 5.74933 90.0411 5.696C89.9771 5.632 89.9078 5.6 89.8331 5.6H89.7531V5.44H91.4971V5.6H91.4171C91.3318 5.6 91.2571 5.632 91.1931 5.696C91.1398 5.74933 91.0865 5.81867 91.0331 5.904C90.9905 5.98933 90.9585 6.08 90.9371 6.176C90.9158 6.272 90.9051 6.35733 90.9051 6.432V12.736C90.9051 13.4293 90.8198 14 90.6491 14.448C90.4785 14.8853 90.2438 15.232 89.9451 15.488C89.6465 15.744 89.2945 15.92 88.8891 16.016C88.4945 16.112 88.0731 16.16 87.6251 16.16C87.1451 16.16 86.6971 16.1067 86.2811 16C85.8758 15.904 85.5238 15.728 85.2251 15.472C84.9265 15.216 84.6918 14.8693 84.5211 14.432C84.3505 13.984 84.2651 13.424 84.2651 12.752V6.432C84.2651 6.35733 84.2545 6.272 84.2331 6.176C84.2118 6.08 84.1745 5.98933 84.1211 5.904C84.0785 5.81867 84.0251 5.74933 83.9611 5.696C83.8971 5.632 83.8278 5.6 83.7531 5.6H83.6731V5.44ZM99.3289 6C99.3289 6.064 99.3449 6.144 99.3769 6.24L102.193 13.824L105.009 6.16C105.02 6.13867 105.03 6.10667 105.041 6.064C105.052 6.02133 105.057 5.98933 105.057 5.968C105.057 5.84 105.004 5.74933 104.897 5.696C104.801 5.632 104.71 5.6 104.625 5.6V5.44H106.369V5.6C106.209 5.6 106.06 5.64267 105.921 5.728C105.793 5.81333 105.692 5.95733 105.617 6.16L101.953 16.192L98.2089 6.208C98.1449 6.048 98.0489 5.90933 97.9209 5.792C97.8035 5.67467 97.6542 5.61067 97.4729 5.6V5.44H99.7449V5.6C99.6489 5.6 99.5529 5.63733 99.4569 5.712C99.3715 5.776 99.3289 5.872 99.3289 6ZM114.615 15.84H114.695V16H112.439V15.84H112.519C112.593 15.84 112.663 15.808 112.727 15.744C112.791 15.68 112.844 15.6053 112.887 15.52C112.94 15.4347 112.977 15.344 112.999 15.248C113.02 15.1413 113.031 15.0453 113.031 14.96V6.432C113.031 6.35733 113.02 6.272 112.999 6.176C112.977 6.08 112.94 5.98933 112.887 5.904C112.844 5.81867 112.791 5.74933 112.727 5.696C112.663 5.632 112.593 5.6 112.519 5.6H112.439V5.44H115.223C116.289 5.44 117.111 5.648 117.687 6.064C118.273 6.48 118.567 7.09333 118.567 7.904C118.567 8.30933 118.497 8.66667 118.359 8.976C118.231 9.27467 118.055 9.536 117.831 9.76C117.607 9.97333 117.34 10.1493 117.031 10.288C116.732 10.416 116.412 10.512 116.071 10.576L117.223 12.336C117.5 12.7627 117.783 13.184 118.071 13.6C118.359 14.0053 118.641 14.4267 118.919 14.864C118.993 14.9707 119.073 15.0827 119.159 15.2C119.255 15.3173 119.351 15.424 119.447 15.52C119.553 15.616 119.66 15.696 119.767 15.76C119.884 15.8133 120.001 15.84 120.119 15.84V16H119.431C119.004 16 118.652 15.8987 118.375 15.696C118.108 15.4827 117.884 15.2373 117.703 14.96C117.223 14.256 116.743 13.5413 116.263 12.816C115.793 12.0907 115.324 11.376 114.855 10.672C114.737 10.6613 114.609 10.6507 114.471 10.64C114.343 10.6187 114.22 10.5973 114.103 10.576V14.96C114.103 15.0453 114.113 15.1413 114.135 15.248C114.156 15.344 114.188 15.4347 114.231 15.52C114.284 15.6053 114.337 15.68 114.391 15.744C114.455 15.808 114.529 15.84 114.615 15.84ZM114.103 5.984V10.048H114.183C114.268 10.0587 114.401 10.0693 114.583 10.08C114.775 10.08 115.009 10.08 115.287 10.08C115.511 10.08 115.745 10.048 115.991 9.984C116.247 9.90933 116.481 9.792 116.695 9.632C116.919 9.46133 117.1 9.24267 117.239 8.976C117.388 8.70933 117.463 8.37333 117.463 7.968C117.463 7.56267 117.383 7.232 117.223 6.976C117.073 6.72 116.86 6.51733 116.583 6.368C116.316 6.21867 115.991 6.11733 115.607 6.064C115.223 6.01067 114.801 5.984 114.343 5.984H114.103ZM126.079 15.84H126.159C126.245 15.84 126.319 15.8133 126.383 15.76C126.447 15.696 126.501 15.6213 126.543 15.536C126.597 15.4507 126.634 15.36 126.655 15.264C126.687 15.168 126.703 15.0773 126.703 14.992V6.432C126.703 6.35733 126.687 6.272 126.655 6.176C126.634 6.08 126.597 5.98933 126.543 5.904C126.501 5.81867 126.447 5.74933 126.383 5.696C126.319 5.632 126.245 5.6 126.159 5.6H126.079V5.44H132.239V6.928H132.079C132.058 6.68267 131.962 6.46933 131.791 6.288C131.621 6.096 131.354 6 130.991 6H127.775V10.048H130.431C130.677 10.048 130.879 9.97333 131.039 9.824C131.21 9.67467 131.295 9.49867 131.295 9.296H131.455V11.296H131.295C131.295 11.104 131.215 10.9387 131.055 10.8C130.895 10.6613 130.687 10.592 130.431 10.592H127.775V15.44H131.279C131.482 15.44 131.658 15.392 131.807 15.296C131.957 15.2 132.079 15.088 132.175 14.96C132.282 14.8213 132.357 14.6773 132.399 14.528C132.453 14.368 132.479 14.2347 132.479 14.128H132.639V16H126.079V15.84Z" fill="white"/>
</svg>

<svg xmlns="http://www.w3.org/2000/svg" width="133" height="20" fill="none"><path fill="#fff" d="M29 16H0L14.5 0zM7.876 8.08 9.85 10.26l1.974-2.178-1.974-2.185zm1.975 7.308 1.974-2.178-1.974-2.185-1.975 2.185zm9.33 0 1.974-2.178-1.975-2.185-2.006 2.185zM16.847 3.325a.2.2 0 0 1-.047.058 164 164 0 0 1-1.866 2.062c-.054.058 0 .097 0 .148l1.82 2.01.085.084 1.975-2.171zM5.201 15.388l.078-.084L7.1 13.3a.12.12 0 0 0 .045-.093.12.12 0 0 0-.046-.094c-.552-.593-1.088-1.198-1.632-1.798l-.265-.29-1.974 2.185zm5-9.879 1.974 2.178.063-.058 1.858-2.049c.062-.07 0-.11 0-.16l-1.82-1.998-.077-.084zm0 5.156 1.974 2.178.101-.104c.591-.644 1.19-1.288 1.789-1.978a.14.14 0 0 0 .039-.045.12.12 0 0 0 0-.11 205.19 205.19 0 0 1-1.71-1.888l-.219-.231zm9.33 0 1.974 2.178 1.975-2.178-1.975-2.178zM16.847 8.48v.045l-1.874 2.069c-.062.058-.039.096 0 .148l1.742 1.933q.069.085.163.18l1.975-2.178zm-9.314 4.35a.2.2 0 0 1 .039-.052l1.873-2.068c.055-.065 0-.097 0-.149l-1.842-2.01a.4.4 0 0 0-.086-.077l-1.967 2.171zm11.615-2.578 1.975-2.178-1.975-2.171-1.975 2.178zm-4.665-5.155L16.46 2.92 14.516.786h-.04L12.58 2.9a.1.1 0 0 0-.018.051q0 .028.018.052zm0 5.155 1.975-2.178L14.5 5.896l-1.975 2.185zm0 5.155 1.975-2.178-1.975-2.184-1.959 2.165zm9.33 0 1.975-2.178-1.967-2.165h-.039l-1.905 2.081c-.062.071 0 .104 0 .149l1.555 1.746zM1.12 15.53h3.545l-1.757-1.934zm23.246 0h3.514l-1.757-1.934zm-10.426 0-1.765-1.934-1.764 1.934zm5.777 0h3.514l-1.757-1.934zm-1.135 0-1.757-1.934-1.757 1.934zm-9.33 0-1.757-1.934-1.757 1.934zM54.72 15.84h.08a.34.34 0 0 0 .224-.08.9.9 0 0 0 .16-.224.9.9 0 0 0 .112-.272.9.9 0 0 0 .048-.272v-8.56a.8.8 0 0 0-.048-.256.9.9 0 0 0-.112-.272.6.6 0 0 0-.16-.208.3.3 0 0 0-.224-.096h-.08v-.16h2.304v.16h-.08a.3.3 0 0 0-.224.096.6.6 0 0 0-.16.208q-.064.128-.112.272a1.2 1.2 0 0 0-.032.256v8.976h3.504a.96.96 0 0 0 .528-.144 1.3 1.3 0 0 0 .368-.352q.16-.225.224-.464.08-.255.08-.464h.16V16h-6.56zM71.893 5.28q1.248 0 2.24.448a4.9 4.9 0 0 1 1.68 1.184 5 5 0 0 1 1.072 1.728q.384.975.384 2.048 0 1.2-.448 2.208a5.1 5.1 0 0 1-1.2 1.728q-.769.72-1.792 1.136-1.008.4-2.16.4-1.231 0-2.224-.448a5.2 5.2 0 0 1-1.664-1.184 5.3 5.3 0 0 1-1.04-1.696 5.5 5.5 0 0 1-.368-2q0-1.024.368-2.016a5.5 5.5 0 0 1 1.072-1.792 5.5 5.5 0 0 1 1.744-1.264q1.025-.48 2.336-.48m-.016 10.32q1.073-.048 1.872-.48A4.5 4.5 0 0 0 75.11 14q.545-.688.8-1.504a5.1 5.1 0 0 0 .272-1.616q0-.88-.32-1.776a5.4 5.4 0 0 0-.912-1.616 4.6 4.6 0 0 0-1.424-1.184q-.816-.464-1.84-.464-.991 0-1.776.448-.783.432-1.344 1.12a5.1 5.1 0 0 0-.832 1.536 5.2 5.2 0 0 0-.288 1.664q0 .88.336 1.776.337.88.928 1.6.592.72 1.392 1.168a3.63 3.63 0 0 0 1.776.448M83.673 5.44h2.272v.16h-.08a.3.3 0 0 0-.224.096.9.9 0 0 0-.176.208 1.2 1.2 0 0 0-.096.272 1.2 1.2 0 0 0-.032.256v6.32q0 .624.128 1.152t.432.912q.305.384.8.608.495.208 1.216.208.8 0 1.28-.256t.736-.656a2.5 2.5 0 0 0 .336-.928q.08-.511.08-1.008V6.432q0-.112-.032-.256a.9.9 0 0 0-.112-.272.6.6 0 0 0-.16-.208.3.3 0 0 0-.208-.096h-.08v-.16h1.744v.16h-.08a.3.3 0 0 0-.224.096 1.2 1.2 0 0 0-.16.208 1.2 1.2 0 0 0-.096.272 1.2 1.2 0 0 0-.032.256v6.304q0 1.04-.256 1.712-.255.656-.704 1.04a2.5 2.5 0 0 1-1.056.528 5.3 5.3 0 0 1-1.264.144q-.72 0-1.344-.16a2.5 2.5 0 0 1-1.056-.528q-.447-.384-.704-1.04-.256-.672-.256-1.68v-6.32q0-.112-.032-.256a.9.9 0 0 0-.112-.272.6.6 0 0 0-.16-.208.3.3 0 0 0-.208-.096h-.08zM99.33 6a.8.8 0 0 0 .048.24l2.816 7.584 2.816-7.664a.5.5 0 0 0 .032-.096.4.4 0 0 0 .016-.096q0-.192-.16-.272a.5.5 0 0 0-.272-.096v-.16h1.744v.16a.84.84 0 0 0-.448.128q-.192.128-.304.432l-3.664 10.032-3.744-9.984a1.1 1.1 0 0 0-.288-.416.67.67 0 0 0-.448-.192v-.16h2.272v.16a.47.47 0 0 0-.288.112q-.128.096-.128.288m15.286 9.84h.08V16h-2.256v-.16h.08a.3.3 0 0 0 .208-.096.9.9 0 0 0 .16-.224.9.9 0 0 0 .112-.272 1.5 1.5 0 0 0 .032-.288V6.432q0-.112-.032-.256a.9.9 0 0 0-.112-.272.6.6 0 0 0-.16-.208.3.3 0 0 0-.208-.096h-.08v-.16h2.784q1.6 0 2.464.624.88.625.88 1.84 0 .608-.208 1.072-.192.448-.528.784-.336.32-.8.528a4.6 4.6 0 0 1-.96.288l1.152 1.76q.416.64.848 1.264.431.608.848 1.264.111.16.24.336.144.176.288.32.16.144.32.24.175.08.352.08V16h-.688q-.64 0-1.056-.304a3.1 3.1 0 0 1-.672-.736q-.72-1.056-1.44-2.144-.705-1.088-1.408-2.144l-.384-.032-.368-.064v4.384q0 .128.032.288.032.144.096.272.08.128.16.224a.3.3 0 0 0 .224.096m-.512-9.856v4.064h.08q.127.015.4.032h.704q.335 0 .704-.096a2.2 2.2 0 0 0 .704-.352q.336-.256.544-.656.224-.4.224-1.008t-.24-.992a1.6 1.6 0 0 0-.64-.608 2.8 2.8 0 0 0-.976-.304 9 9 0 0 0-1.264-.08zm11.976 9.856h.08q.128 0 .224-.08a.8.8 0 0 0 .16-.224.8.8 0 0 0 .112-.272.9.9 0 0 0 .048-.272v-8.56a.8.8 0 0 0-.048-.256.8.8 0 0 0-.112-.272.6.6 0 0 0-.16-.208.3.3 0 0 0-.224-.096h-.08v-.16h6.16v1.488h-.16a1.04 1.04 0 0 0-.288-.64q-.255-.288-.8-.288h-3.216v4.048h2.656a.86.86 0 0 0 .608-.224.68.68 0 0 0 .256-.528h.16v2h-.16a.64.64 0 0 0-.24-.496q-.24-.208-.624-.208h-2.656v4.848h3.504a.95.95 0 0 0 .528-.144q.225-.144.368-.336.16-.208.224-.432.08-.24.08-.4h.16V16h-6.56z"/></svg>
